ui/src/assets/icons/item-categories/item_cat_ingot.svg

<svg xmlns="http://www.w3.org/2000/svg" viewBox="0 0 512 512"><path d="M0 0h512v512H0z"/><path fill="#fff" d="M322.248 85.684 61.432 224.717l-41.145 109.94 7.233 3.85 153.673 81.8 308.495-164.215-37.752-99.903-129.688-70.506zm119.035 95.187 25.11 66.45-102.56 54.594L430.39 186.64l10.893-5.77zm-89.576 47.417L284.957 343.9l-41.67 22.182 72.195-118.62 36.225-19.175zM72.38 248.78l28.21 14.933-54.012 54.012L72.38 248.78zm210.827 15.767L211.19 382.87l.26.16-17.208 9.16 5.795-83.618 83.17-44.025zm-165.334 8.312 16.963 8.98-60.445 60.445-16.93-9.012 60.413-60.414zM181.42 306.9l-6.174 89.07-54.1-28.798L181.42 306.9z"/></svg>

<svg xmlns="http://www.w3.org/2000/svg" viewBox="0 0 512 512"><path d="M0 0h512v512H0z"/>
    <!-- Main ingot body (mid-tone) -->
    <path fill="#fff" data-channel="facet_mid" d="M322.248 85.684L61.432 224.717 20.287 334.657 27.52 338.507 181.193 420.307 489.688 256.092 451.936 156.189 322.248 85.683Z"/>
    <!-- Top right highlight (light facet) -->
    <path fill="#fff" data-channel="facet_light" d="M441.283 180.871L466.393 247.321 363.833 301.915 430.39 186.64 441.283 180.87Z"/>
    <!-- Right side edge (highlight edge) -->
    <path fill="#fff" data-channel="edge" d="M351.707 228.288L284.957 343.9 243.287 366.082 315.482 247.462 351.707 228.287Z"/>
    <!-- Left bottom shadow (dark facet) -->
    <path fill="#fff" data-channel="facet_dark" d="M72.38 248.78L100.59 263.713 46.578 317.725 72.38 248.78Z"/>
    <!-- Center facet detail -->
    <path fill="#fff" data-channel="detail" d="M283.207 264.547L211.19 382.87 211.45 383.03 194.242 392.19 200.037 308.572 283.207 264.547Z"/>
    <!-- Bottom left shadow (dark facet) -->
    <path fill="#fff" data-channel="facet_dark" d="M117.873 272.859L134.836 281.839 74.391 342.284 57.461 333.272 117.874 272.858Z"/>
    <!-- Bottom detail -->
    <path fill="#fff" data-channel="detail" d="M181.42 306.9L175.246 395.97 121.146 367.172 181.42 306.9Z"/></svg>
